!!!COM: Fe/licien David
!!!CNT: Francais
!!!TXO: Francais
!!!OTL: Le Jour des morts
!!!LYR: Alphonse de Lamartine
!!!ENC: Jacob Pegg
!!!YOR: Romantic French Song 1830-1870, David Tunley, ed., New York: Garland Publishing, Inc., 1995
!!!ODT: 1843/
!!NB: Vocal melody and text only encoded.
!!NB: Only first strophe encoded.
**kern	**silbe
*clef F4	*
*k[f#c#g#]	*
*M4/4	*
=10	=10
2r	.
4r	.
{4E#	{Voi-
=11	=11
4C#	-la
4G#	les
4E#	feuil-
8B	-les
8A	sans
=12	=12
2G#	se\-
4F#}	-ve}
{4F#	{Qui
=13	=13
4F#	tom-
4Gn	-bent
4E#	sur
8.F#	le
16F#	ga-
=14	=14
2F#}	-zon;}
4r	.
{(8F#	{Voi-
8G#)	|
=15	=15
4A	-la
4A	le
4B	vent
8B	qui
8c	s'e/-
=16	=16
2d	-le/-
4c#}	-ve}
{8.c#	{Et
16B	ge/-
=17	=17
4A	-mit
4G#	dans
4.G#	le
8C#	val-
=18	=18
4C#}	-lon;}
4r	.
2r	.
=19	=19
2r	.
4r	.
{4G#	{Voi-
=20	=20
4G#	-la
4F#	l'er-
4E#	-ran-
8F#	-te hi-
8D#	-ron-
=21	=21
4C#	-del-
4C#}	-le}
4r	.
{4G#	{Qui
=22	=22
4G#	ra-
8F#	-se
8F#	du
4E#	bout
4En	de
=23	=23
4E	l'ai-
4D}	-le}
{4BB	{L'eau
4D	dor-
=24	=24
4Gn	-man-
4B	-te
4.E#	des
8G#	ma-
=25	=25
2C#}	-rais;}
4r	.
{4F#	{Vo-
=26	=26
4F#	-la\
(8G#	l'en
8A#)	|
4B	-fant
8F#	des
8G#	chau-
=27	=27
4An	-mie\-
4F#}	-res}
4r	.
{4F#	{Qui
=28	=28
4F#	gla-
(8G#	-ne
8A#)	|
4B	sur
8F#	les
8G#	bruy-
=29	=29
4An	-e\-
4F#}	-res}
{4.E	{Le
8E	bois
=30	=30
4F#	tom-
4F#	-be/
4.Gn	des
8Gn	fo-
=31	=31
2F#}	-re^ts,}
2r	.
=32	=32
2r	.
{4.A	{Le
8F#	bois
=33	=33
4C#	tom-
4C#	-be
4.C#	des
8C#	fo-
=34	=34
[1FF#	-re\ts!
=35	=35
4FF#]}	|}
4r	.
2r	.
!!end verse. It repeats twice more, then
=104	=104
2r	.
{4A#	{Ah!
8G#	vous
8A#	pleur-
=105	=105
4B	-rer
8A#	est
8B	le
4G#	bon-
8.c	-heur
16B	su-
=106	=106
4B	-pre^-
(8A#	-me,
8G#)}	|}
{4F#	{Ma^-
8.F#	-nes
16G#	che/-
=107	=107
4G#	-ris
8A#	de
8A#	qui-
4G#	-con-
8.F#	-que a
16G#	des
=108	=108
2C#}	pleurs!}
{4B	{Vous
8.A#	ou-
16A#	-bli-
=109	=109
4.An	-er,
8G#	c'est
8B	s'ou-
8B	-bli-
8A#	-er
8A#	soi
=110	=110
(4An	me\-
4Gn)}	-me:}
{4Gn	{N'e^-
8F#	-tes~
8F#	~vous
=111	=111
4E#	pas
8F#	un
8F#	de/-
4C#	-bris
8.En;	de
16D	nos
=112	=112
2C#}	coeurs?}
2r	.
=113	=113
1r	.
=114	=114
{2C#	{Dieu
4C#	du
4C#	par-
=115	=115
2C#}	-don,}
!!in poem - '...pardon!'
4r	.
{4C#	{leur
=116	=116
4C#	Dieu,
!!in poem - '...Dieu!'
(4.F#	dieu
8A)	|
8B	de
8c#	leurs
=117	=117
(4c#	pe\-
4G#)}	-res,}
!!in poem - '...pe\res!'
{4A	{Toi
8A	que
8G#	leur
=118	=118
(8B	bou-
8A)	|
(8G#	-che a
8F#)	|
8G#	si
8E	sou-
8.F#	-vent
16D	nom-
=119	=119
4C#}	-me/,}
!! 'nomme!' etc
8r	.
{8C#	{En-
4.F#	-tends
8F#	pour
=120	=120
4E#	eux,
8r	.
8C#	en-
4.En	-tends,
8En	pour
=121	=121
4D#	eux
4Dn	les
8C#	lar-
8C#	-mes
8BB	de
8BB	leurs
=122	=122
(2D	fre\-
2BB)	|
=123	=123
4C#}	-res!}
4r	.
2r	.
=124	=124
2r	.
4r	.
{4C#	{Pri-
=125	=125
4.C#	-ons,
8C#	pri-
4C#	-ons
4C#	pour
=126	=126
2C#	eux,
4C#	nous,
[4F#	nous
=127	=127
8F#]	|
8F#	qu'ils
2d	ont
8.c#	tant
16G#	ai-
=128	=128
4A}	-me/s!}
4r	.
4r	.
{4C#	{Pri-
=129	=129
4.C#	-ons,
8C#	pri-
4C#	-ons,
4C#	pour
=130	=130
4.C#	eux,
8C#	pri-
4.E	-ons
8E	pri-
=131	=131
4.F#	-ons
8F#	pour
[2E	eux,
=132	=132
8E]}	|}
8r	.
{(8.E	{pri-
16D)	|
4C#	-ons
4C#	pour
=133	=133
[1FF#	eux!
=134	=134
4FF#]}	|}
4r	.
2r	.
*-	*-
